X:5729
T:Gan ainm
R:Jig
S:
H:
N:
D:
Z:Adrian Scahill
M:6/8
L:1/8
K:G
BAG EGD|EGD EGA|BAG EGD|EAA AGA|\
BAG EGD|EGD EGA|BAG EGD|EGF G3:||\
GBd e2d|egd B2A|GBd e2d|eaa aga|\
bag agf|gfe dBA|BAG EGD|EGF G3:||
